X: 142
T: The Humors of Carrickmacross
N:"Plaintive"
B:O'Neill's 142
Z:Transcribed by henrik.norbeck@mailbox.swipnet.se
M:9/8
L:1/8
K:Dm
(3A/=B/^c/|">"d2 e f(e/d/)(c/=B/) ">"c(_B/A/)(G/F/)|(GF).E D2 D D2 z|
(fe).f (de).f (gf).e|.d(d/e/d/c/) A2 A A2 e||
(fe).f (de).f (gf).e|.d(d/e/d/c/) A2 A (A=B^c)|
d2e (fe/)(d/=c/)=B/ c(_B/A/)(G/F/)|(GF)E D2 D HD2||


